**kern
*part1
*staff1
*
*
*clefG2
*k[f#c#g#]
*A:
*M4/4
*MM114
=1
!LO:TX:a:t=[quarter]=114
4ee
8.aaL
16aaJk
2aa
=2
8ccc#L
8bb
8aa
[8aaJ
2aa]
=3
8bbL
8bb
8bb
[8bbJ
8bbL]
8aaJ
4ccc#
=4
4.bb
16ccc#LL
16bbJJ
[4.aa
16aaLL]
[16dJJ
=5
16dLL]
[16c#J
8c#J]
4c#
4c#
[8c#L
16c#L]
[16dJJ
!!linebreak:original
=6
16dLL]
[16c#J
8c#J]
4c#
4c#
[8c#L
16c#L]
[16dJJ
=7
16dLL]
[16f#J
8f#J]
4f#
4f#
[8f#L
16f#L]
[16aJJ
=8
16aLL]
[16aJ
8aJ]
4a
4a
4a
!!linebreak:original
=9
8cc#L
[8ee
8ee]
[8eeJ
4.ee]
16ddLL
16cc#JJ
=10
8ddL
[8cc#
8cc#]
[8aJ
2a]
=11
8f#L
8a
8a
[8cc#J
8cc#L]
8f#
8e
8f#J
!!linebreak:original
=12
1a
=13
8eeL
[8ee
8ee]
[8eeJ
4.ee]
16ddLL
16cc#JJ
=14
8ddL
[8cc#
8cc#]
[8aJ
2a]
!!linebreak:original
=15
8f#L
8a
8a
[8cc#J
8cc#L]
8f#
8f#
[8eJ
=16
2e_
8eL]
8aJ
4a
=17
4r
4a
2a
!!pagebreak:original
=18
4r
4a
8aL
16cc#L
16bJJ
4a
=19
1r
=20
16f#LL
16aJ
8aJ
8aL
8aJ
16cc#LL
[16f#
16f#]
16f#JJ
8f#L
[8eJ
!!linebreak:original
=21
8eL]
8eJ
4a
2a
=22
4r
4a
8aL
16cc#L
16bJJ
4a
=23
8f#L
8a
8a
[8cc#J
8cc#L]
8f#
8e
8f#J
=24
2a
4a
8aL
8eeJ
!!linebreak:original
=25!|:
4ee
8.aaL
16aaJk
2aa
=26
8ccc#L
8bb
8aa
[8aaJ
2aa]
=27
8bbL
8bb
8bb
[8bbJ
8bbL]
8aaJ
4ccc#
!!linebreak:original
=28
4.bb
16ccc#LL
16bbJJ
2aa
=29:|!
8cc#L
8ee
8ee
[8eeJ
4.ee]
16ddLL
16cc#JJ
=30
8ddL
[8cc#
8cc#]
[8aJ
2a]
!!linebreak:original
=31
8f#L
8a
8a
[8cc#J
8cc#L]
8f#
8e
8f#J
=32
[2.a
8aL]
8eeJ
=33
8eeL
[8ee
8ee]
[8eeJ
4.ee]
16ddLL
16cc#JJ
!!pagebreak:original
=34
8ddL
[8cc#
8cc#]
[8aJ
4.a]
8a
=35
8f#L
8a
8a
[8cc#J
8cc#L]
8bJ
4b
=36
[2a
8aL]
8aJ
4a
!!linebreak:original
=37
4r
4a
2a
=38
4r
4a
8aL
16cc#L
16bJJ
4a
=39
1r
!!linebreak:original
=40
16f#LL
16aJ
8aJ
8aL
8aJ
16cc#LL
[16f#
16f#]
16f#JJ
8f#L
[8eJ
=41
8eL]
8eJ
4a
2a
=42
4r
4a
8aL
16cc#L
16bJJ
4a
=43
8f#L
8a
8a
[8cc#J
8cc#L]
8f#
8e
8f#J
!!linebreak:original
=44
2a
4a
8aL
8eeJ
=45!|:
4ee
8.aaL
16aaJk
2aa
=46
8ccc#L
8bb
8aa
[8aaJ
2aa]
!!linebreak:original
=47
8bbL
8bb
8bb
[8bbJ
8bbL]
8aaJ
4ccc#
=48
4.bb
16ccc#LL
16bbJJ
2aa
=49:|!
4r
4a
2a
=50
4r
4a
8aL
16cc#L
16bJJ
4a
=51
1r
=52
1r
!!pagebreak:original
=53
4r
4a
2a
=54
4r
4a
8aL
16cc#L
16bJJ
4a
=55
8f#L
8a
8a
[8cc#J
8cc#L]
8f#
8e
8f#J
=56
[2.a
8aL]
8cc#J
=57
8ddL
8dd
8cc#
[8ddJ
8ddL]
8dd
8cc#
[8eeJ
=58
8eeL]
8cc#
8b
[8aJ
4.a]
8ee
!!linebreak:original
=59!|:
4ee
8.aaL
16aaJk
2aa
=60
8ccc#L
8bb
8aa
[8aaJ
2aa]
=61
8bbL
8bb
8bb
[8bbJ
8bbL]
8aaJ
4ccc#
!!linebreak:original
=62
4.bb
16ccc#LL
16bbJJ
2aa
=63:|!
4r
4ee
2ee
=64
4r
4ee
8.eeL
16cc#Jk
16ddKL
(8cc#
16bJk
!!linebreak:original
=65
4a)
4r
4r
8r
8ee
=66
8ff#L
8ff#
8ff#
[8ff#J
8ff#L]
8ee
8dd
[8ff#J
=67
4ff#]
4ee
2ee
!!linebreak:original
=68
4r
4ee
8.eeL
16cc#Jk
16ddKL
8cc#
16bJk
=69
8bL 8dd
16bL 16dd
16bJJ 16dd
8bL 8dd
8bJ 8dd
8bL 8dd
8a 8cc#
8cc# 8ee
[8bJ [8dd
=70
4.b] 4.dd]
[8a [8cc#
2a] 2cc#]
!!pagebreak:original
=71
8bL 8dd
16bL 16dd
16bJJ 16dd
8bL 8dd
8bJ 8dd
8bL 8dd
8a 8cc#
8cc# 8ee
8bJ 8dd
=72
4r
8r
[4.a
8aL]
8aJ
=73
4a
4a
4a
4cc#
!!linebreak:original
=74
4ee
4b
4b
4a
=75
4ee
4b
4b
4cc#
=76
4ee
4b
4b
4a
=77
1r
==
*-
!!!system-decoration: {(s1,s2)}
